resources/sparkles.svg

<svg xmlns="http://www.w3.org/2000/svg" width="24" height="24" fill="#f4f4f7" viewBox="0 0 24 24"><path stroke="#555e70" stroke-linecap="round" stroke-linejoin="round" stroke-width="2" d="M5 3V7M3 5H7M6 17V21M4 19H8M13 3L15.2857 9.85714L21 12L15.2857 14.1429L13 21L10.7143 14.1429L5 12L10.7143 9.85714L13 3Z"/></svg>

<svg width="24" height="24" fill="#f4f4f7">
  <path stroke="#555e70" stroke-linecap="round" stroke-linejoin="round" stroke-width="2" d="M5 3v4M3 5h4M6 17v4m-2-2h4m5-16 2.286 6.857L21 12l-5.714 2.143L13 21l-2.286-6.857L5 12l5.714-2.143L13 3Z"/>
</svg>
